!!!!SEGMENT: Mou3002-Dieu_gard_de_mal_de_deshonneur.krn
!!!id: Mou3002
!!!AGN: Chanson
!!!SCT: LonBL 35087
!!!voices: 3
!!!COM: Jean Mouton
!!!OTL: Dieu gard de mal de deshonneur
**kern	**kern	**kern
*part3	*part2	*part1
*staff3	*staff2	*staff1
*I"Bassus	*I"Tenor	*I"Superius
*I'B	*I'T	*I'S
*clefF4	*clefGv2	*clefGv2
*k[b-]	*k[b-]	*k[b-]
*F:	*F:	*F:
*M2/1	*M2/1	*M2/1
*met(C|)	*met(C|)	*met(C|)
=1	=1	=1
1c	0r	1r
2c	.	1g
2c	.	.
=2	=2	=2
1.G	0r	2g
.	.	2g
.	.	[1d
2G	.	.
=3	=3	=3
1B-y	0r	2d]
.	.	2d
1A	.	1f
=4	=4	=4
1G	1g	1e
2G	2g	1d
[2B-y	2g	.
=5	=5	=5
4B-]	1.d	2r
4A	.	.
4G	.	2G
4F	.	.
2.G	.	1B-y
.	2d	.
4F	.	.
=6	=6	=6
2D	1f	1A
2F	.	.
4C	1e	2.G
4D	.	.
4E	.	.
4F	.	4A
=7	=7	=7
4G	1d	4B-y
4A	.	4c
4B-y	.	2.d
4c	.	.
2d	2r	.
.	.	4e
[2B-y	2d	[2f
=8	=8	=8
4B-]	1f	4f]
4c	.	4e
2d	.	1d
1A	1e	.
.	.	2c#i
=9	=9	=9
2.B-y	2d	1d
.	2.f	.
4A	.	.
2G	.	2r
.	4e	.
2F	[2d	2g
=10	=10	=10
1E	2d]	2g
.	2c#i	2g
[1D	[1d	2f
.	.	4d
.	.	4e
=11	=11	=11
1D]	1d]	4f
.	.	4g
.	.	2a
2r	1r	4g
.	.	4f
2c	.	4e
.	.	4d
=12	=12	=12
2c	0r	1e
2c	.	.
2B-y	.	2d
4G	.	4B-y
4A	.	4c
=13	=13	=13
4B-y	1r	4d
4c	.	4e
2d	.	4f
.	.	4d
4c	2r	4e
4B-y	.	4f
4A	2c	[2g
4G	.	.
=14	=14	=14
1A	2c	2g]
.	2c	2f#i
1G	2B-y	1g
.	4G	.
.	4A	.
=15	=15	=15
2r	4B-y	2G
.	4c	.
1G	2d	2.B-y
.	4c	.
.	4B-y	4c
2G	4A	4d
.	4G	4e
=16	=16	=16
1F	1A	1f
2G	2G	2e
[2A	[2c	[2f
=17	=17	=17
2A]	4c]	2f]
.	4B-y	.
4G	1A	1d
4F	.	.
1E	.	.
.	2G	2c#i
=18	=18	=18
1D	0A	1d
2r	.	1r
[2F	.	.
=19	=19	=19
1F]	2r	1r
.	1.c	.
2.C	.	2r
.	.	2g
4D	.	.
=20	=20	=20
4E	2.G	2g
4F	.	.
1G	.	2g
.	4A	.
.	4B-y	4d
.	4c	4e
2D	[2d	4f
.	.	4g
=21	=21	=21
2F	2d]	2a
2G	2B-y	1g
1D	1A	.
.	.	2f#i
=22	=22	=22
2r	1G	0g
1.G	.	.
.	2r	.
.	[2d	.
=23	=23	=23
2.D	1d]	2.f
4E	.	4e
4F	4A	2d
4G	4B-y	.
[2A	4c	[2c
.	4d	.
=24	=24	=24
2A]	2e	2c]
2F	1d	4B-y
.	.	4A
1E	.	2.G
.	2c#i	.
.	.	4A
=25	=25	=25
[0D	2d	4B-y
.	.	4A
.	2.f	4B-y
.	.	4c
.	.	4d
.	4e	4e
.	[2d	4f
.	.	4g
=26	=26	=26
0D]	2d]	2a
.	4c	1g
.	4B-y	.
.	1A	.
.	.	2f#i
=27	=27	=27
1r	1G	0g
1G	1r	.
=28	=28	=28
2G	1d	0r
2G	.	.
[1D	2d	.
.	2d	.
=29	=29	=29
2D]	1.A	0r
2D	.	.
1F	.	.
.	2A	.
=30	=30	=30
1E	1c	0r
1D	1B-y	.
=31	=31	=31
1r	1A	0r
1F	1r	.
=32	=32	=32
2F	1c	0r
2F	.	.
2.C	2c	.
.	2c	.
4D	.	.
=33	=33	=33
4E	2.G	0r
4F	.	.
2.G	.	.
.	4A	.
.	4B-y	.
4A	4c	.
[2B-y	2d	.
=34	=34	=34
4B-]	2c	0r
4A	.	.
1G	2B-y	.
.	1A	.
2F#i	.	.
=	=	=
*M3/1	*M3/1	*M3/1
*met(3)	*met(3)	*met(3)
1G	1G	1r
1r	1r	1r
1B-y	1G	1d
=35	=35	=35
0A	0c	0e
1A	1c	1e
=36	=36	=36
0A	0c	0e
1A	1c	1e
=37	=37	=37
0D	0d	0f
1D	1d	1d
=38	=38	=38
0F	0A	0c
1A	1A	1f
=39	=39	=39
0G	0d	0g
1G	1d	1g
=40	=40	=40
0G	0d	0g
1A	1c	1e
=41	=41	=41
1F	1A	0f
0G	0B-y	.
.	.	1e
=	=	=
*M2/1	*M2/1	*M2/1
*met(C|)	*met(C|)	*met(C|)
0D	0A	0f
=42	=42	=42
1c	0r	1r
2c	.	1g
2c	.	.
=43	=43	=43
1.G	0r	2g
.	.	2g
.	.	[1d
2G	.	.
=44	=44	=44
1B-y	0r	2d]
.	.	2d
1A	.	1f
=45	=45	=45
1G	1g	1e
2G	2g	1d
[2B-y	2g	.
=46	=46	=46
4B-]	1.d	2r
4A	.	.
4G	.	2G
4F	.	.
2.G	.	1B-y
.	2d	.
4F	.	.
=47	=47	=47
2D	1f	1A
2F	.	.
4C	1e	1G
4D	.	.
4E	.	.
4F	.	.
=48	=48	=48
4G	1d	2r
4A	.	.
4B-y	.	2.d
4c	.	.
2d	2r	.
.	.	4e
[2B-y	2d	[2f
=49	=49	=49
4B-]	1f	4f]
4c	.	4e
2d	.	1d
1A	1e	.
.	.	2c#i
=50	=50	=50
2.B-y	2d	1d
.	2.f	.
4A	.	.
2G	.	2r
.	4e	.
2F	[2d	2g
=51	=51	=51
1E	2d]	2g
.	2c#i	2g
[1D	[1d	2f
.	.	4d
.	.	4e
=52	=52	=52
1D]	1d]	4f
.	.	4g
.	.	2a
2r	1r	4g
.	.	4f
2c	.	4e
.	.	4d
=53	=53	=53
2c	0r	1e
2c	.	.
2B-y	.	2d
4G	.	4B-y
4A	.	4c
=54	=54	=54
4B-y	1r	4d
4c	.	4e
2d	.	4f
.	.	4d
4c	2r	4e
4B-y	.	4f
4A	2c	[2g
4G	.	.
=55	=55	=55
1A	2c	2g]
.	2c	2f#i
1G	2B-y	1g
.	4G	.
.	4A	.
=56	=56	=56
2r	4B-y	2G
.	4c	.
2G	2d	2.B-y
2G	4c	.
.	4B-y	4c
2G	4A	4d
.	4G	4B-y
=57	=57	=57
1F	1A	2c
.	.	2d
2G	2G	2e
[2A	[2c	[2f
=58	=58	=58
2A]	4c]	4f]
.	4B-y	4e
4G	1A	1d
4F	.	.
1E	.	.
.	2G	2c#i
=59	=59	=59
1D	0A	1d
2r	.	1r
2F	.	.
=60	=60	=60
2F	2r	1r
2F	2c	.
2.C	2c	2r
.	2c	2g
4D	.	.
=61	=61	=61
4E	2.G	2g
4F	.	.
1G	.	2g
.	4A	.
.	4B-y	4d
.	4c	4e
2D	[2d	4f
.	.	4g
=62	=62	=62
2F	2d]	2a
2G	2B-y	1g
1D	1A	.
.	.	2f#i
=63	=63	=63
2r	1G	0g
1.G	.	.
.	2r	.
.	[2d	.
=64	=64	=64
2.D	1d]	2.f
4E	.	4e
4F	4A	2d
4G	4B-y	.
[2A	4c	[2c
.	4d	.
=65	=65	=65
2A]	2e	2c]
4G	1d	4B-y
4F	.	4A
1E	.	2.G
.	2c#i	.
.	.	4A
=66	=66	=66
[0D	2d	4B-y
.	.	4A
.	2.f	4B-y
.	.	4c
.	.	4d
.	4e	4e
.	(2d	4f
.	.	4g
=67	=67	=67
0D]	2d)	4a
.	.	4d
.	4c	1g
.	4B-y	.
.	1A	.
.	.	2f#i
=68	=68	=68
00Gl	00Gl	00gl
==	==	==
*-	*-	*-
!!!system-decoration: [*]
!!!RDF**kern: i = editorial accidental
!!!RDF**kern: l = terminal long
!!!ENC: Benjamin Ory
!!!END: 2022/2/12
!!!EED: Benjamin Ory
!!!EEV: 2022/02/12
!!!YEC: Copyright 2022 Benjamin Ory, All Rights Reserved
!!!ONB: Translated from MusicXML on 2022/02/12
